<?xml version="1.0" encoding="UTF-8"?>
<map version="1.10" tiledversion="1.11.0" orientation="orthogonal" renderorder="right-down" width="29" height="20" tilewidth="16" tileheight="24" infinite="0" nextlayerid="2" nextobjectid="1">
 <tileset firstgid="1" name="oryx_roguelike_16x24" tilewidth="16" tileheight="24" tilecount="931" columns="19">
  <image source="../../../RogueBasin/oryx_roguelike_2.0/V1/oryx_roguelike_16x24.png" width="304" height="1184"/>
 </tileset>
 <tileset firstgid="932" name="oryx_roguelike_16x24" tilewidth="16" tileheight="24" tilecount="931" columns="19">
  <image source="../../../RogueBasin/oryx_roguelike_2.0/V1/oryx_roguelike_16x24.png" width="304" height="1184"/>
 </tileset>
 <layer id="1" name="Tile Layer 1" width="29" height="20">
  <data encoding="csv">
10,10,10,10,10,10,10,10,10,10,12,13,14,10,10,10,10,10,10,10,12,12,12,12,12,13,14,10,10,
10,10,10,10,10,10,10,10,10,10,10,10,10,10,10,10,10,10,10,10,10,10,10,10,10,10,10,10,10,
10,10,10,10,10,10,10,10,10,10,10,10,10,10,10,10,10,10,10,10,10,10,10,10,10,10,10,10,10,
10,10,10,10,10,10,10,10,10,10,10,10,10,10,10,10,10,10,10,10,10,10,10,10,10,10,10,10,10,
12,13,14,10,10,13,14,14,14,14,10,10,10,10,10,10,10,10,10,10,10,10,10,10,10,10,10,10,10,
10,10,10,10,10,10,10,10,10,10,10,10,14,10,10,10,10,10,10,10,10,10,10,10,10,10,10,10,10,
10,10,10,10,10,14,14,14,14,14,14,14,10,14,10,10,13,14,10,10,10,10,10,10,10,10,10,10,10,
10,10,10,10,14,33,33,33,10,10,10,10,12,10,10,10,10,10,10,10,10,10,10,10,10,10,10,10,10,
10,10,10,14,33,14,14,13,10,10,70,12,12,63,12,12,64,12,12,75,12,12,13,12,13,14,10,10,10,
12,13,14,10,10,10,10,14,12,13,457,12,13,489,13,13,469,13,13,476,13,13,14,12,12,12,13,14,10,
12,13,14,10,10,10,10,12,14,10,10,13,14,14,14,14,14,14,14,10,14,10,10,31,31,31,12,12,13,
12,12,13,14,10,10,10,12,10,10,10,10,10,10,10,10,10,10,14,10,14,10,10,964,964,964,31,31,12,
31,12,12,12,13,14,10,31,12,12,12,12,12,13,14,10,10,10,12,12,12,964,964,964,964,964,964,964,31,
964,31,12,12,12,12,13,964,31,31,12,12,12,12,12,12,12,12,12,12,31,964,10,10,10,964,964,964,964,
964,964,31,31,12,12,12,964,964,964,31,31,31,12,12,12,12,12,31,31,964,10,10,964,964,964,964,964,964,
10,964,964,964,31,31,12,10,964,964,964,964,964,31,31,31,31,31,964,964,964,10,10,964,964,964,964,964,964,
31,10,964,964,964,964,31,31,10,10,964,964,964,964,964,964,964,964,964,964,10,10,964,964,964,964,964,964,964,
964,964,10,10,964,964,964,964,31,31,10,10,10,964,964,964,964,964,10,10,10,964,964,964,964,964,964,964,964,
964,964,964,964,10,10,964,964,964,964,31,31,31,10,10,10,10,10,10,10,964,964,964,964,964,964,964,964,12,
10,10,964,964,964,964,10,10,964,964,964,964,964,31,31,31,31,31,31,31,31,31,12,12,12,12,31,31,31
</data>
 </layer>
</map>
