<?xml version="1.0" encoding="UTF-8"?>
<map version="1.10" tiledversion="1.11.0" orientation="orthogonal" renderorder="right-down" width="29" height="20" tilewidth="16" tileheight="24" infinite="0" nextlayerid="2" nextobjectid="1">
 <tileset firstgid="1" source="../../oryx_roguelike_2.0/Terrain_Objects.tsx"/>
 <tileset firstgid="241" name="oryx_roguelike_16x24" tilewidth="16" tileheight="24" tilecount="931" columns="19">
  <image source="../../oryx_roguelike_2.0/V1/oryx_roguelike_16x24.png" width="304" height="1184"/>
 </tileset>
 <layer id="1" name="Tile Layer 1" width="29" height="20">
  <data encoding="csv">
273,273,273,273,273,273,273,273,273,273,273,273,273,273,273,273,273,273,273,273,273,273,273,273,273,273,273,273,273,
273,273,273,273,273,273,273,273,273,273,273,273,273,273,273,273,273,273,273,273,273,273,273,273,273,273,273,273,273,
273,273,273,273,273,273,273,273,273,273,273,273,273,273,273,273,273,273,273,273,273,273,273,273,273,273,273,273,273,
273,273,273,273,273,273,273,273,273,273,273,273,273,273,646,273,273,273,273,273,273,273,273,273,273,273,273,273,273,
273,273,273,273,273,273,273,273,273,646,273,273,273,273,273,273,273,273,273,273,273,273,273,273,273,273,273,273,273,
644,646,646,273,273,646,646,646,646,646,646,640,646,646,646,646,646,273,273,273,273,273,273,273,646,646,641,646,273,
646,641,646,646,646,646,646,640,644,646,646,646,646,646,646,640,646,646,646,646,640,646,646,646,640,646,646,646,644,
627,627,627,627,627,627,627,627,627,627,627,627,627,627,627,627,627,627,627,627,627,627,627,627,627,627,627,627,627,
273,273,273,254,255,255,273,273,254,273,273,254,255,255,273,273,273,608,609,273,254,255,255,255,273,273,254,255,273,
273,273,608,609,255,255,254,273,254,608,608,609,255,255,615,273,273,273,273,254,608,609,255,255,725,273,273,273,273,
255,255,255,255,255,255,255,255,255,255,255,255,255,255,255,255,255,255,255,255,255,255,255,255,255,255,255,255,254,
627,627,627,627,627,627,627,627,627,627,627,627,627,627,627,627,627,627,627,627,627,627,627,627,627,627,627,627,627,
641,646,646,646,646,641,646,640,641,646,646,646,646,646,646,646,646,644,640,646,646,646,646,646,641,640,640,646,646,
646,646,641,646,646,646,640,646,646,646,646,646,646,646,640,646,646,646,646,646,646,646,640,646,646,646,646,646,646,
273,273,273,273,273,273,273,273,273,273,273,273,273,273,273,273,646,273,273,273,273,273,273,273,273,273,273,273,273,
273,273,273,273,646,273,273,273,273,273,273,273,273,273,273,273,273,273,273,273,273,273,273,273,273,273,273,273,273,
273,273,273,273,273,273,273,273,273,273,273,273,273,273,646,273,273,273,273,273,273,273,273,273,273,273,646,273,273,
273,273,273,273,273,273,273,273,273,273,273,273,273,273,273,273,273,273,273,273,273,273,273,273,273,273,273,273,273,
273,273,273,273,273,273,273,273,273,273,273,273,273,273,273,273,273,273,273,273,273,273,273,646,273,273,273,273,273,
273,273,273,273,273,273,273,273,273,273,273,273,273,273,273,273,273,273,273,273,273,273,273,273,273,273,273,273,273
</data>
 </layer>
</map>
