<?xml version="1.0" encoding="UTF-8"?>
<map version="1.10" tiledversion="1.11.0" orientation="orthogonal" renderorder="right-down" width="16" height="10" tilewidth="16" tileheight="24" infinite="0" nextlayerid="2" nextobjectid="1">
 <tileset firstgid="1" name="oryx_roguelike_16x24" tilewidth="16" tileheight="24" tilecount="931" columns="19">
  <image source="../../oryx_roguelike_2.0/V1/oryx_roguelike_16x24.png" width="304" height="1184"/>
 </tileset>
 <layer id="1" name="Tile Layer 1" width="16" height="10">
  <data encoding="csv">
12,13,14,9,10,11,12,13,9,10,9,9,9,10,11,12,
12,13,14,9,10,11,12,9,9,11,11,11,11,11,12,13,
12,666,670,670,670,670,670,670,670,667,666,670,670,670,667,14,
12,671,9,10,11,12,9,9,12,671,671,10,11,12,671,14,
12,671,9,10,11,12,9,9,12,671,671,12,13,14,671,15,
12,671,9,10,11,12,9,9,12,671,671,12,13,14,671,11,
12,671,9,10,11,9,10,9,12,671,671,14,14,14,671,15,
11,668,670,670,670,670,670,670,670,669,668,670,670,670,669,13,
9,10,9,10,9,10,11,9,9,9,9,9,9,9,9,13,
10,11,9,9,10,11,12,13,9,9,10,11,12,13,14,15
</data>
 </layer>
</map>
