<?xml version="1.0" encoding="UTF-8"?>
<map version="1.10" tiledversion="1.11.0" orientation="orthogonal" renderorder="right-down" width="8" height="3" tilewidth="16" tileheight="24" infinite="0" nextlayerid="2" nextobjectid="1">
 <tileset firstgid="1" name="oryx_roguelike_16x24" tilewidth="16" tileheight="24" tilecount="931" columns="19">
  <image source="../../oryx_roguelike_2.0/V1/oryx_roguelike_16x24.png" width="304" height="1184"/>
 </tileset>
 <layer id="1" name="Tile Layer 1" width="8" height="3">
  <data encoding="csv">
791,792,793,794,795,796,797,798,
810,811,812,813,814,815,816,817,
829,830,831,832,833,834,835,836
</data>
 </layer>
</map>
