<?xml version="1.0" encoding="UTF-8"?>
<map version="1.10" tiledversion="1.11.0" orientation="orthogonal" renderorder="right-down" width="16" height="10" tilewidth="16" tileheight="24" infinite="0" nextlayerid="2" nextobjectid="1">
 <tileset firstgid="1" name="oryx_roguelike_16x24" tilewidth="16" tileheight="24" tilecount="931" columns="19">
  <image source="../../oryx_roguelike_2.0/V1/oryx_roguelike_16x24.png" width="304" height="1184"/>
 </tileset>
 <layer id="1" name="Tile Layer 1" width="16" height="10">
  <data encoding="csv">
12,13,14,15,11,11,12,13,14,11,30,11,12,13,14,15,
12,13,14,15,30,11,12,13,14,30,11,11,12,13,14,15,
12,11,780,781,782,783,784,785,786,787,788,11,12,13,14,15,
12,13,799,800,801,802,803,804,805,806,807,11,12,13,14,15,
12,13,818,819,820,821,822,823,824,825,826,11,12,13,14,15,
12,13,14,30,31,11,12,11,30,11,11,11,11,13,14,15,
12,13,11,30,31,11,12,30,31,11,30,30,11,12,13,14,
12,13,30,31,32,11,11,30,11,30,31,32,11,12,13,14,
12,13,30,31,32,11,30,31,11,30,31,32,11,12,13,14,
11,11,30,31,32,11,30,31,30,31,32,33,11,11,12,13
</data>
 </layer>
</map>
