<?xml version="1.0" encoding="UTF-8"?>
<map version="1.10" tiledversion="1.11.0" orientation="orthogonal" renderorder="right-down" width="16" height="10" tilewidth="16" tileheight="24" infinite="0" nextlayerid="2" nextobjectid="1">
 <tileset firstgid="1" name="oryx_roguelike_16x24" tilewidth="16" tileheight="24" tilecount="931" columns="19">
  <image source="../oryx_roguelike_2.0/V1/oryx_roguelike_16x24.png" width="304" height="1184"/>
 </tileset>
 <layer id="1" name="Tile Layer 1" width="16" height="10">
  <data encoding="csv">
12,13,14,15,15,15,15,10,11,10,10,11,12,13,14,15,
12,13,14,15,15,15,10,11,12,10,10,11,12,13,14,15,
13,14,15,14,15,14,10,11,10,10,11,10,11,12,13,14,
13,14,15,14,15,14,10,11,10,10,11,10,11,12,13,14,
13,14,15,14,15,10,11,12,10,10,11,10,11,12,13,14,
13,14,15,14,15,10,11,12,10,11,12,10,11,12,13,14,
13,14,666,670,670,670,670,670,670,670,670,670,670,667,14,15,
13,14,671,14,10,10,11,12,10,11,10,11,12,671,14,15,
13,14,668,670,670,670,670,670,670,670,670,670,670,669,12,13,
10,10,10,11,12,10,10,11,10,10,11,10,10,11,12,13
</data>
 </layer>
</map>
